**kern	**kern	**fb
*part1	*part1	*part1
*staff2	*staff1	*
*I"Piano	*	*
*clefF4	*clefG2	*
*k[f#c#]	*k[f#c#]	*
=1	=1	=1
2.E	4a	6 4
.	4g	5 3
.	4r	.
=	=	=
2.r	4r	.
.	12gL	.
.	12cc#	.
.	12aJ	.
.	8eeL	.
.	8cc#J	.
=	=	=
8r	2gg	.
8AL	.	.
8E	.	.
8C#J	.	.
4AA	8r	7 5
.	8g	.
=	=	=
2D	(4f#	5 3
.	4a)	.
4F#	12ddL	6
.	12cc#	.
.	12bJ	.
=	=	=
.	4qqa/	6 3
2E	2g	.
4D	4f#	5 3
=	=	=
.	4qqf#/	6 3
2C#	2e	.
4r	4d	.
=	=	=
4r	2a	.
4F#	.	6
4D	16bLL	6
.	16cc#J	.
.	8ddJ	.
=	=	=
*-	*-	*-
!!!system-decoration: {(s1,s2)}
